src/images/GeneFit/Survey8.svg

<svg width="1186" height="77" viewBox="0 0 1186 77" fill="none" xmlns="http://www.w3.org/2000/svg">
<path d="M32.288 29H30.584L26.336 36.464L22.016 29H20.288L25.52 37.976V44H27.056V37.976L32.288 29ZM33.5356 38.552V38.672C33.6076 41.192 35.0956 42.92 37.3756 42.92C38.5756 42.92 39.6316 42.608 40.5676 42.008L40.8556 43.376C39.8476 44 38.6716 44.312 37.3276 44.312C34.1836 44.312 32.0236 41.984 32.0236 38.6C32.0236 36.872 32.5276 35.456 33.5116 34.352C34.4956 33.248 35.7196 32.696 37.2076 32.696C39.6556 32.696 41.2156 34.28 41.2156 36.752C41.2156 37.4 41.1436 37.976 40.9756 38.504L33.5356 38.552ZM33.6316 37.376L39.7276 37.352C39.7516 37.28 39.7516 37.112 39.7516 36.872C39.7516 35.144 38.8156 34.04 37.1116 34.04C35.2156 34.04 33.8956 35.456 33.6316 37.376ZM50.6171 41C50.6171 42.992 48.9371 44.312 46.6811 44.312C45.3131 44.312 44.1131 43.976 43.0811 43.328L43.4891 41.96C44.4971 42.632 45.5771 42.968 46.7291 42.968C48.1211 42.968 49.2011 42.272 49.2011 41.12C49.2011 40.856 49.1531 40.64 49.0331 40.424C48.9131 40.208 48.7691 40.04 48.6491 39.92C48.5291 39.8 48.2891 39.68 47.9771 39.536C47.6651 39.392 47.4251 39.296 47.2811 39.248C47.1371 39.2 46.8491 39.104 46.4411 38.984C44.5211 38.408 43.2491 37.592 43.2491 35.864C43.2491 33.896 44.8091 32.696 46.9691 32.696C48.1451 32.696 49.2491 32.96 50.3051 33.512L49.8731 34.856C48.8891 34.304 47.8811 34.04 46.8731 34.04C45.5291 34.04 44.6651 34.664 44.6651 35.72C44.6651 35.96 44.7131 36.176 44.8331 36.368C44.9531 36.584 45.0731 36.728 45.1931 36.848C45.3131 36.968 45.5291 37.112 45.8411 37.232C46.1291 37.352 46.3691 37.448 46.5371 37.52C46.7051 37.592 46.9931 37.664 47.3771 37.784C49.3691 38.36 50.6171 39.176 50.6171 41Z" fill="#FBFBFB"/>
<path d="M658.168 41.864L649.648 29H647.92V44H649.408V31.16L658 44.144H659.656V29H658.168V41.864ZM673.321 38.48C673.321 40.208 672.817 41.6 671.785 42.68C670.753 43.76 669.481 44.312 667.921 44.312C666.361 44.312 665.089 43.784 664.105 42.728C663.121 41.672 662.617 40.28 662.617 38.528C662.617 36.8 663.145 35.384 664.177 34.304C665.209 33.224 666.481 32.696 668.041 32.696C669.601 32.696 670.873 33.224 671.857 34.28C672.841 35.336 673.321 36.728 673.321 38.48ZM671.857 38.528C671.857 35.816 670.321 34.04 667.969 34.04C665.665 34.04 664.105 35.84 664.105 38.48C664.105 41.192 665.641 42.968 667.993 42.968C670.297 42.968 671.857 41.168 671.857 38.528Z" fill="#FBFBFB"/>
<path d="M23.024 64.84C23.816 64.768 24.392 64.72 24.728 64.72C27.872 64.72 29.888 66.52 29.888 69.328C29.888 70.84 29.384 72.088 28.376 73.048C27.344 74.008 26.096 74.488 24.608 74.488C23 74.488 21.608 74.152 20.432 73.456L20.792 71.512C22.112 72.256 23.408 72.616 24.632 72.616C26.528 72.616 27.872 71.344 27.872 69.424C27.872 67.744 26.576 66.424 24.488 66.424C23.432 66.424 22.448 66.568 21.536 66.832L21.008 66.352L21.992 58.648H29.48L29.552 60.592H23.6L23.024 64.84ZM36.7691 65.92C39.0491 66.28 40.2971 67.888 40.2971 69.712C40.2971 71.176 39.7691 72.352 38.7371 73.192C37.6811 74.056 36.3611 74.488 34.7771 74.488C33.0731 74.488 31.7051 74.176 30.7211 73.576L31.0811 71.728C32.0171 72.376 33.2651 72.688 34.8011 72.688C36.8891 72.688 38.2331 71.68 38.2331 69.856C38.2331 68.248 36.9611 67.408 34.9691 67.336C34.3691 67.312 33.6251 67.384 32.7611 67.528V65.824C36.0011 65.08 37.6091 63.928 37.6091 62.392C37.6091 60.952 36.6251 60.16 34.8971 60.16C33.8411 60.16 32.6891 60.616 31.4411 61.552L30.7451 59.872C32.0651 58.84 33.5291 58.312 35.1131 58.312C38.0171 58.312 39.7691 59.848 39.7691 62.104C39.7691 63.808 38.4731 65.248 36.7691 65.92ZM44.063 67.288C44.495 67.288 44.855 67.432 45.143 67.72C45.431 68.032 45.575 68.392 45.575 68.8C45.575 69.208 45.431 69.568 45.143 69.88C44.855 70.192 44.495 70.36 44.063 70.36C43.607 70.36 43.247 70.192 42.959 69.88C42.647 69.568 42.503 69.208 42.503 68.8C42.503 68.392 42.647 68.032 42.959 67.72C43.247 67.432 43.607 67.288 44.063 67.288ZM53.3953 61.888C54.7393 61.336 55.4113 60.424 55.4113 59.176C55.4113 57.64 54.2593 56.656 52.6753 56.656C50.8753 56.656 49.8193 57.616 49.8193 58.936C49.8193 59.224 49.8913 59.488 50.0353 59.752C50.1793 60.016 50.3473 60.208 50.5153 60.376C50.6833 60.544 50.9713 60.736 51.3793 60.952C51.7633 61.168 52.0753 61.312 52.2913 61.408C52.5073 61.528 52.8913 61.672 53.3953 61.888ZM51.9553 63.232C50.4673 63.712 49.5793 64.744 49.5793 66.088C49.5793 67.6 50.8753 68.608 52.6992 68.608C54.5953 68.608 55.6273 67.792 55.6273 66.352C55.6273 66.088 55.5793 65.848 55.5073 65.632C55.4353 65.416 55.2913 65.2 55.0753 64.984C54.8593 64.768 54.6673 64.6 54.5233 64.48C54.3793 64.36 54.1153 64.216 53.7073 64.024C53.2993 63.832 53.0353 63.712 52.9153 63.64C52.7713 63.568 52.4593 63.448 51.9553 63.232ZM54.8833 62.56C56.7313 63.496 57.6433 64.672 57.6433 66.112C57.6433 68.512 55.7953 70.36 52.6033 70.36C49.3633 70.36 47.5873 68.656 47.5873 66.304C47.5873 64.504 49.0273 62.968 50.4673 62.584C48.7873 61.72 47.8273 60.76 47.8273 59.152C47.8273 56.632 49.7233 54.904 52.7713 54.904C55.7953 54.904 57.4033 56.68 57.4033 58.96C57.4033 60.64 56.2273 62.008 54.8833 62.56ZM66.9993 58.432C66.9993 60.64 65.4393 62.392 63.0153 62.392C60.6393 62.392 59.0313 60.64 59.0313 58.432C59.0313 57.304 59.3913 56.368 60.1353 55.576C60.8553 54.808 61.8153 54.424 63.0153 54.424C64.2153 54.424 65.1753 54.808 65.9193 55.576C66.6393 56.344 66.9993 57.304 66.9993 58.432ZM74.3193 54.664L62.3673 70.36H60.8553L72.8073 54.664H74.3193ZM76.1193 66.592C76.1193 67.72 75.7593 68.656 75.0393 69.424C74.2953 70.216 73.3353 70.6 72.1353 70.6C70.9353 70.6 69.9753 70.216 69.2553 69.448C68.5113 68.68 68.1513 67.72 68.1513 66.592C68.1513 64.384 69.7353 62.632 72.1353 62.632C74.5113 62.632 76.1193 64.384 76.1193 66.592ZM65.7033 58.432C65.7033 57.64 65.4633 56.992 64.9833 56.464C64.4793 55.936 63.8313 55.672 63.0153 55.672C62.1993 55.672 61.5513 55.936 61.0713 56.464C60.5673 56.992 60.3273 57.64 60.3273 58.432C60.3273 59.176 60.5673 59.824 61.0713 60.352C61.5513 60.88 62.1993 61.144 63.0153 61.144C63.8313 61.144 64.4793 60.88 64.9833 60.352C65.4633 59.824 65.7033 59.176 65.7033 58.432ZM74.8233 66.592C74.8233 65.848 74.5833 65.2 74.1033 64.672C73.5993 64.144 72.9513 63.88 72.1353 63.88C71.3193 63.88 70.6713 64.144 70.1913 64.672C69.6873 65.2 69.4473 65.848 69.4473 66.592C69.4473 67.384 69.6873 68.032 70.1913 68.56C70.6713 69.088 71.3193 69.352 72.1353 69.352C72.9513 69.352 73.5993 69.088 74.1033 68.56C74.5833 68.032 74.8233 67.384 74.8233 66.592Z" fill="#FBFBFB"/>
<path d="M658.288 69.76L658.216 67.888H655.936V58.288H654.184L646.432 68.608L646.624 69.76H654.016V74.416H655.936V69.76H658.288ZM654.016 67.888H649.192L654.016 61.36V67.888ZM659.595 64.12C659.595 61.936 660.315 59.968 661.73 58.216C663.147 56.488 665.163 55.312 667.827 54.688L668.427 56.56C664.707 57.496 662.475 59.368 661.73 62.176L661.779 62.2C662.859 61.216 664.131 60.712 665.595 60.712C668.067 60.712 669.987 62.608 669.987 65.368C669.987 68.272 667.971 70.36 664.875 70.36C663.219 70.36 661.947 69.76 661.011 68.56C660.075 67.384 659.595 65.896 659.595 64.12ZM661.683 64.744C661.683 66.856 662.979 68.536 664.971 68.536C666.795 68.536 667.995 67.288 667.995 65.464C667.995 63.664 666.795 62.464 665.067 62.464C663.771 62.464 662.547 63.064 661.803 63.736C661.73 64.024 661.683 64.36 661.683 64.744ZM673.391 67.288C673.823 67.288 674.183 67.432 674.471 67.72C674.759 68.032 674.903 68.392 674.903 68.8C674.903 69.208 674.759 69.568 674.471 69.88C674.183 70.192 673.823 70.36 673.391 70.36C672.935 70.36 672.575 70.192 672.287 69.88C671.975 69.568 671.831 69.208 671.831 68.8C671.831 68.392 671.975 68.032 672.287 67.72C672.575 67.432 672.935 67.288 673.391 67.288ZM686.105 70H677.081V68.296C677.417 68.032 677.873 67.696 678.473 67.264C679.073 66.856 679.529 66.52 679.841 66.28C680.153 66.04 680.537 65.752 680.993 65.392C681.449 65.032 681.785 64.744 682.049 64.504C682.289 64.264 682.529 64 682.793 63.688C683.057 63.4 683.225 63.112 683.345 62.848C683.441 62.584 683.489 62.32 683.489 62.056C683.489 60.928 682.625 60.16 681.209 60.16C680.177 60.16 679.025 60.616 677.801 61.528L677.105 59.848C678.401 58.816 679.841 58.312 681.425 58.312C683.897 58.312 685.577 59.704 685.577 61.816C685.577 62.08 685.553 62.32 685.505 62.56C685.433 62.824 685.385 63.04 685.313 63.256C685.241 63.472 685.145 63.688 684.977 63.904C684.809 64.144 684.665 64.336 684.545 64.504C684.425 64.672 684.257 64.864 683.993 65.104C683.729 65.368 683.513 65.56 683.369 65.68C683.225 65.8 682.985 65.992 682.649 66.256C682.289 66.52 682.049 66.712 681.881 66.832C681.713 66.952 681.401 67.168 680.993 67.48C680.561 67.792 680.249 68.008 680.081 68.128H686.105V70ZM695.249 58.432C695.249 60.64 693.689 62.392 691.265 62.392C688.889 62.392 687.281 60.64 687.281 58.432C687.281 57.304 687.641 56.368 688.385 55.576C689.105 54.808 690.065 54.424 691.265 54.424C692.465 54.424 693.425 54.808 694.169 55.576C694.889 56.344 695.249 57.304 695.249 58.432ZM702.569 54.664L690.617 70.36H689.105L701.057 54.664H702.569ZM704.369 66.592C704.369 67.72 704.009 68.656 703.289 69.424C702.545 70.216 701.585 70.6 700.385 70.6C699.185 70.6 698.225 70.216 697.505 69.448C696.761 68.68 696.401 67.72 696.401 66.592C696.401 64.384 697.985 62.632 700.385 62.632C702.761 62.632 704.369 64.384 704.369 66.592ZM693.953 58.432C693.953 57.64 693.713 56.992 693.233 56.464C692.729 55.936 692.081 55.672 691.265 55.672C690.449 55.672 689.801 55.936 689.321 56.464C688.817 56.992 688.577 57.64 688.577 58.432C688.577 59.176 688.817 59.824 689.321 60.352C689.801 60.88 690.449 61.144 691.265 61.144C692.081 61.144 692.729 60.88 693.233 60.352C693.713 59.824 693.953 59.176 693.953 58.432ZM703.073 66.592C703.073 65.848 702.833 65.2 702.353 64.672C701.849 64.144 701.201 63.88 700.385 63.88C699.569 63.88 698.921 64.144 698.441 64.672C697.937 65.2 697.697 65.848 697.697 66.592C697.697 67.384 697.937 68.032 698.441 68.56C698.921 69.088 699.569 69.352 700.385 69.352C701.201 69.352 701.849 69.088 702.353 68.56C702.833 68.032 703.073 67.384 703.073 66.592Z" fill="#FBFBFB"/>
<rect width="1186" height="15" rx="7.5" fill="#EC8539" fill-opacity="0.2"/>
<rect width="638.068" height="15" rx="7.5" fill="#EC8539"/>
</svg>

<svg fill="none" height="77" viewBox="0 0 1186 77" width="1186" xmlns="http://www.w3.org/2000/svg"><g fill="#fbfbfb"><path d="m32.288 29h-1.704l-4.248 7.464-4.32-7.464h-1.728l5.232 8.976v6.024h1.536v-6.024zm1.2476 9.552v.12c.072 2.52 1.56 4.248 3.84 4.248 1.2 0 2.256-.312 3.192-.912l.288 1.368c-1.008.624-2.184.936-3.528.936-3.144 0-5.304-2.328-5.304-5.712 0-1.728.504-3.144 1.488-4.248s2.208-1.656 3.696-1.656c2.448 0 4.008 1.584 4.008 4.056 0 .648-.072 1.224-.24 1.752zm.096-1.176 6.096-.024c.024-.072.024-.24.024-.48 0-1.728-.936-2.832-2.64-2.832-1.896 0-3.216 1.416-3.48 3.336zm16.9855 3.624c0 1.992-1.68 3.312-3.936 3.312-1.368 0-2.568-.336-3.6-.984l.408-1.368c1.008.672 2.088 1.008 3.24 1.008 1.392 0 2.472-.696 2.472-1.848 0-.264-.048-.48-.168-.696s-.264-.384-.384-.504-.36-.24-.672-.384-.552-.24-.696-.288-.432-.144-.84-.264c-1.92-.576-3.192-1.392-3.192-3.12 0-1.968 1.56-3.168 3.72-3.168 1.176 0 2.28.264 3.336.816l-.432 1.344c-.984-.552-1.992-.816-3-.816-1.344 0-2.208.624-2.208 1.68 0 .24.048.456.168.648.12.216.24.36.36.48s.336.264.648.384c.288.12.528.216.696.288s.456.144.84.264c1.992.576 3.24 1.392 3.24 3.216z"/><path d="m658.168 41.864-8.52-12.864h-1.728v15h1.488v-12.84l8.592 12.984h1.656v-15.144h-1.488zm15.153-3.384c0 1.728-.504 3.12-1.536 4.2s-2.304 1.632-3.864 1.632-2.832-.528-3.816-1.584-1.488-2.448-1.488-4.2c0-1.728.528-3.144 1.56-4.224s2.304-1.608 3.864-1.608 2.832.528 3.816 1.584 1.464 2.448 1.464 4.2zm-1.464.048c0-2.712-1.536-4.488-3.888-4.488-2.304 0-3.864 1.8-3.864 4.44 0 2.712 1.536 4.488 3.888 4.488 2.304 0 3.864-1.8 3.864-4.44z"/><path d="m23.024 64.84c.792-.072 1.368-.12 1.704-.12 3.144 0 5.16 1.8 5.16 4.608 0 1.512-.504 2.76-1.512 3.72-1.032.96-2.28 1.44-3.768 1.44-1.608 0-3-.336-4.176-1.032l.36-1.944c1.32.744 2.616 1.104 3.84 1.104 1.896 0 3.24-1.272 3.24-3.192 0-1.68-1.296-3-3.384-3-1.056 0-2.04.144-2.952.408l-.528-.48.984-7.704h7.488l.072 1.944h-5.952zm13.7451 1.08c2.28.36 3.528 1.968 3.528 3.792 0 1.464-.528 2.64-1.56 3.48-1.056.864-2.376 1.296-3.96 1.296-1.704 0-3.072-.312-4.056-.912l.36-1.848c.936.648 2.184.96 3.72.96 2.088 0 3.432-1.008 3.432-2.832 0-1.608-1.272-2.448-3.264-2.52-.6-.024-1.344.048-2.208.192v-1.704c3.24-.744 4.848-1.896 4.848-3.432 0-1.44-.984-2.232-2.712-2.232-1.056 0-2.208.456-3.456 1.392l-.696-1.68c1.32-1.032 2.784-1.56 4.368-1.56 2.904 0 4.656 1.536 4.656 3.792 0 1.704-1.296 3.144-3 3.816zm7.2939 1.368c.432 0 .792.144 1.08.432.288.312.432.672.432 1.08s-.144.768-.432 1.08-.648.48-1.08.48c-.456 0-.816-.168-1.104-.48-.312-.312-.456-.672-.456-1.08s.144-.768.456-1.08c.288-.288.648-.432 1.104-.432zm9.3323-5.4c1.344-.552 2.016-1.464 2.016-2.712 0-1.536-1.152-2.52-2.736-2.52-1.8 0-2.856.96-2.856 2.28 0 .288.072.552.216.816s.312.456.48.624.456.36.864.576c.384.216.696.36.912.456.216.12.6.264 1.104.48zm-1.44 1.344c-1.488.48-2.376 1.512-2.376 2.856 0 1.512 1.296 2.52 3.1199 2.52 1.8961 0 2.9281-.816 2.9281-2.256 0-.264-.048-.504-.12-.72s-.216-.432-.432-.648-.408-.384-.552-.504-.408-.264-.816-.456-.672-.312-.792-.384c-.144-.072-.456-.192-.96-.408zm2.928-.672c1.848.936 2.76 2.112 2.76 3.552 0 2.4-1.848 4.248-5.04 4.248-3.24 0-5.016-1.704-5.016-4.056 0-1.8 1.44-3.336 2.88-3.72-1.68-.864-2.64-1.824-2.64-3.432 0-2.52 1.896-4.248 4.944-4.248 3.024 0 4.632 1.776 4.632 4.056 0 1.68-1.176 3.048-2.52 3.6zm12.116-4.128c0 2.208-1.56 3.96-3.984 3.96-2.376 0-3.984-1.752-3.984-3.96 0-1.128.36-2.064 1.104-2.856.72-.768 1.68-1.152 2.88-1.152s2.16.384 2.904 1.152c.72.768 1.08 1.728 1.08 2.856zm7.32-3.768-11.952 15.696h-1.512l11.952-15.696zm1.8 11.928c0 1.128-.36 2.064-1.08 2.832-.744.792-1.704 1.176-2.904 1.176s-2.16-.384-2.88-1.152c-.744-.768-1.104-1.728-1.104-2.856 0-2.208 1.584-3.96 3.984-3.96 2.376 0 3.984 1.752 3.984 3.96zm-10.416-8.16c0-.792-.24-1.44-.72-1.968-.504-.528-1.152-.792-1.968-.792s-1.464.264-1.944.792c-.504.528-.744 1.176-.744 1.968 0 .744.24 1.392.744 1.92.48.528 1.128.792 1.944.792s1.464-.264 1.968-.792c.48-.528.72-1.176.72-1.92zm9.12 8.16c0-.744-.24-1.392-.72-1.92-.504-.528-1.152-.792-1.968-.792s-1.464.264-1.944.792c-.504.528-.744 1.176-.744 1.92 0 .792.24 1.44.744 1.968.48.528 1.128.792 1.944.792s1.464-.264 1.968-.792c.48-.528.72-1.176.72-1.968z"/><path d="m658.288 69.76-.072-1.872h-2.28v-9.6h-1.752l-7.752 10.32.192 1.152h7.392v4.656h1.92v-4.656zm-4.272-1.872h-4.824l4.824-6.528zm5.579-3.768c0-2.184.72-4.152 2.135-5.904 1.417-1.728 3.433-2.904 6.097-3.528l.6 1.872c-3.72.936-5.952 2.808-6.697 5.616l.049.024c1.08-.984 2.352-1.488 3.816-1.488 2.472 0 4.392 1.896 4.392 4.656 0 2.904-2.016 4.992-5.112 4.992-1.656 0-2.928-.6-3.864-1.8-.936-1.176-1.416-2.664-1.416-4.44zm2.088.624c0 2.112 1.296 3.792 3.288 3.792 1.824 0 3.024-1.248 3.024-3.072 0-1.8-1.2-3-2.928-3-1.296 0-2.52.6-3.264 1.272-.073.288-.12.624-.12 1.008zm11.708 2.544c.432 0 .792.144 1.08.432.288.312.432.672.432 1.08s-.144.768-.432 1.08-.648.48-1.08.48c-.456 0-.816-.168-1.104-.48-.312-.312-.456-.672-.456-1.08s.144-.768.456-1.08c.288-.288.648-.432 1.104-.432zm12.714 2.712h-9.024v-1.704c.336-.264.792-.6 1.392-1.032.6-.408 1.056-.744 1.368-.984s.696-.528 1.152-.888.792-.648 1.056-.888c.24-.24.48-.504.744-.816.264-.288.432-.576.552-.84.096-.264.144-.528.144-.792 0-1.128-.864-1.896-2.28-1.896-1.032 0-2.184.456-3.408 1.368l-.696-1.68c1.296-1.032 2.736-1.536 4.32-1.536 2.472 0 4.152 1.392 4.152 3.504 0 .264-.024.504-.072.744-.072.264-.12.48-.192.696s-.168.432-.336.648c-.168.24-.312.432-.432.6s-.288.36-.552.6c-.264.264-.48.456-.624.576s-.384.312-.72.576c-.36.264-.6.456-.768.576s-.48.336-.888.648c-.432.312-.744.528-.912.648h6.024zm9.144-11.568c0 2.208-1.56 3.96-3.984 3.96-2.376 0-3.984-1.752-3.984-3.96 0-1.128.36-2.064 1.104-2.856.72-.768 1.68-1.152 2.88-1.152s2.16.384 2.904 1.152c.72.768 1.08 1.728 1.08 2.856zm7.32-3.768-11.952 15.696h-1.512l11.952-15.696zm1.8 11.928c0 1.128-.36 2.064-1.08 2.832-.744.792-1.704 1.176-2.904 1.176s-2.16-.384-2.88-1.152c-.744-.768-1.104-1.728-1.104-2.856 0-2.208 1.584-3.96 3.984-3.96 2.376 0 3.984 1.752 3.984 3.96zm-10.416-8.16c0-.792-.24-1.44-.72-1.968-.504-.528-1.152-.792-1.968-.792s-1.464.264-1.944.792c-.504.528-.744 1.176-.744 1.968 0 .744.24 1.392.744 1.92.48.528 1.128.792 1.944.792s1.464-.264 1.968-.792c.48-.528.72-1.176.72-1.92zm9.12 8.16c0-.744-.24-1.392-.72-1.92-.504-.528-1.152-.792-1.968-.792s-1.464.264-1.944.792c-.504.528-.744 1.176-.744 1.92 0 .792.24 1.44.744 1.968.48.528 1.128.792 1.944.792s1.464-.264 1.968-.792c.48-.528.72-1.176.72-1.968z"/></g><rect fill="#ec8539" fill-opacity=".2" height="15" rx="7.5" width="1186"/><rect fill="#ec8539" height="15" rx="7.5" width="638.068"/></svg>
